Yaru++/apps/scalable/org.gnome.SoundRecorder.svg

<svg height="256" width="256" xmlns="http://www.w3.org/2000/svg" xmlns:xlink="http://www.w3.org/1999/xlink">
  <filter id="filter11191" color-interpolation-filters="sRGB" height="1.024" width="1.024" x="-.01" y="-.01">
    <feGaussianBlur stdDeviation="1.12"/>
  </filter>
  <filter id="filter11210" color-interpolation-filters="sRGB" height="1.096" width="1.096" x="-.05" y="-.05">
    <feGaussianBlur stdDeviation="4.48"/>
  </filter>
  <filter id="filter991" color-interpolation-filters="sRGB" height="1.022" width="1.037" x="-.02" y="-.01">
    <feGaussianBlur stdDeviation=".69"/>
  </filter>
  <linearGradient id="linearGradient932" gradientUnits="userSpaceOnUse" x1="-93.81423" x2="-94.68423" y1="55.5126" y2="203.9006">
    <stop offset="0" stop-opacity="0"/>
    <stop offset=".505"/>
    <stop offset="1" stop-opacity="0"/>
  </linearGradient>
  <circle cx="128.752" cy="127.248" filter="url(#filter11210)" opacity=".1" r="112"/>
  <circle cx="128.752" cy="125.248" filter="url(#filter11191)" opacity=".1" r="112"/>
  <circle cx="128.752" cy="123.248" opacity=".1" r="114"/>
  <circle cx="128.752" cy="123.248" fill="#da1636" r="112"/>
  <path d="m16.751953 123.24805c.219543 2.63999.266428 5.98571.402344 8.91797a112 112 0 0 0 1.226562 10.11914 112 112 0 0 0 2.453125 10.92187 112 112 0 0 0 3.529297 10.625 112 112 0 0 0 4.574219 10.21875 112 112 0 0 0 5.570312 9.71094 112 112 0 0 0 6.511719 9.10742 112 112 0 0 0 7.388672 8.41016 112 112 0 0 0 8.191406 7.63086 112 112 0 0 0 8.91211 6.77539 112 112 0 0 0 9.544922 5.85156 112 112 0 0 0 10.080078 4.86914 112 112 0 0 0 10.517578 3.83984 112 112 0 0 0 10.847653 2.76953 112 112 0 0 0 11.06836 1.67188 112 112 0 0 0 11.05664.55469c1.00274-.00122 2.05955-.08622 3.07227-.09961a112 112 0 0 0 4.97461-.17578 112 112 0 0 0 11.11523-1.34766 112 112 0 0 0 10.92188-2.45312 112 112 0 0 0 10.625-3.5293 112 112 0 0 0 10.21875-4.57422 112 112 0 0 0 9.71093-5.57031 112 112 0 0 0 9.10743-6.51172 112 112 0 0 0 8.41015-7.38867 112 112 0 0 0 7.63086-8.19141 112 112 0 0 0 6.77539-8.91211 112 112 0 0 0 5.85157-9.54492 112 112 0 0 0 4.86914-10.08008 112 112 0 0 0 3.83984-10.51758 112 112 0 0 0 2.76953-10.84765 112 112 0 0 0 1.63867-10.83008c-.1976-4.0827-.28991-8.00416-.00586-11.41992z" fill="#fff" opacity=".1"/>
  <path d="m128.752 11.248006a112 112 0 0 0 -112.000001 111.999994 112 112 0 0 0 .04102 1.16992 112 112 0 0 1 111.958981-111.169914 112 112 0 0 1 111.95898 110.830074 112 112 0 0 0 .041-.83008 112 112 0 0 0 -112-111.999994z" fill="#fff" opacity=".3"/>
  <path d="m128.752 235.248a112 112 0 0 1 -112.000001-112 112 112 0 0 1 .04102-1.16992 112 112 0 0 0 111.958981 111.16992 112 112 0 0 0 111.95898-110.83008 112 112 0 0 1 .041.83008 112 112 0 0 1 -112 112z" opacity=".2"/>
  <g enable-background="new" transform="translate(225.93117 -10.335819)">
    <path d="m-100.18942 53.290706c-13.98549 0-25.24413 11.258648-25.24413 25.244143v50.626931c0 13.98551 11.25864 25.2461 25.24413 25.2461 2.90636 0 5.6498-.585 8.24414-1.48046a45.440092 45.440092 0 0 1 16.70508-20.92578c.10603-.94314.29492-1.86753.29492-2.83985v-50.626941c0-13.985495-11.25865-25.244143-25.24414-25.244143zm-40.39062 40.529303c-2.78842 0-5.04883 2.26041-5.04883 5.04882v29.978511c0 19.87637 12.70266 36.60032 30.29297 42.91601v12.9375h-20.19531c-5.70275 0-10.09766 4.94846-10.09766 10.09765v10.09766h8.51954 21.77343 37.13671a45.440092 45.440092 0 0 1 -16.94141-35.3418 45.440092 45.440092 0 0 1 .39454-5.58203c-1.78601.27264-3.58011.5332-5.44336.5332-19.71399 0-35.34179-15.82454-35.34179-35.6582v-29.978501c0-2.78841-2.26041-5.04882-5.04883-5.04882zm80.7832 0c-2.78842 0-5.04883 2.26041-5.04883 5.04882 0 .69676.0599 1.288541.31445 1.892581v25.89648a45.440092 45.440092 0 0 1 9.7832-2.20899v-25.580071c0-2.78841-2.26041-5.04882-5.04882-5.04882zm10.09765 40.390611a35.342403 35.342403 0 0 0 -35.34375 35.34374 35.342403 35.342403 0 0 0 35.34375 35.3418 35.342403 35.342403 0 0 0 35.3418-35.3418 35.342403 35.342403 0 0 0 -35.3418-35.34374z" filter="url(#filter991)" opacity=".1"/>
    <path d="m-100.18942 53.290706c-13.98549 0-25.24413 11.258648-25.24413 25.244143v50.626931c0 13.98551 11.25864 25.2461 25.24413 25.2461 2.90636 0 5.6498-.585 8.24414-1.48046a45.440092 45.440092 0 0 1 16.70508-20.92578c.10603-.94314.29492-1.86753.29492-2.83985v-50.626941c0-13.985495-11.25865-25.244143-25.24414-25.244143zm-40.39062 40.529303c-2.78842 0-5.04883 2.26041-5.04883 5.04882v29.978511c0 19.87637 12.70266 36.60032 30.29297 42.91601v12.9375h-20.19531c-5.70275 0-10.09766 4.94846-10.09766 10.09765v10.09766h8.51954 21.77343 37.13671a45.440092 45.440092 0 0 1 -16.94141-35.3418 45.440092 45.440092 0 0 1 .39454-5.58203c-1.78601.27264-3.58011.5332-5.44336.5332-19.71399 0-35.34179-15.82454-35.34179-35.6582v-29.978501c0-2.78841-2.26041-5.04882-5.04883-5.04882zm80.7832 0c-2.78842 0-5.04883 2.26041-5.04883 5.04882 0 .69676.0599 1.288541.31445 1.892581v25.89648a45.440092 45.440092 0 0 1 9.7832-2.20899v-25.580071c0-2.78841-2.26041-5.04882-5.04882-5.04882zm10.09765 40.390611a35.342403 35.342403 0 0 0 -35.34375 35.34374 35.342403 35.342403 0 0 0 35.34375 35.3418 35.342403 35.342403 0 0 0 35.3418-35.3418 35.342403 35.342403 0 0 0 -35.3418-35.34374z" fill="url(#linearGradient932)" opacity=".4"/>
    <g fill="#fff">
      <path d="m-99.595568 55.161793c-13.652892 0-24.644212 10.99131-24.644212 24.6442v49.423177c0 13.65289 10.99132 24.6442 24.644212 24.6442 2.83724 0 5.51527-.56977 8.04791-1.44395a44.359438 44.359438 0 0 1 16.30746-20.42778c.10351-.92071.28883-1.82328.28883-2.77247v-49.423177c0-13.65289-10.99131-24.6442-24.6442-24.6442zm-39.430732 39.565479c-2.72211 0-4.92885 2.20675-4.92885 4.92885v29.264988c0 19.40367 12.40107 35.72967 29.57305 41.89516v12.63015h-19.71536c-5.56713 0-9.85769 4.83096-9.85769 9.85769v9.85768h8.31742 21.25563 36.253902a44.359438 44.359438 0 0 1 -16.53853-34.50189 44.359438 44.359438 0 0 1 .38543-5.44864c-1.74353.26616-3.49533.5195-5.31427.5195-19.245162 0-34.501892-15.44797-34.501892-34.80994v-29.264698c0-2.7221-2.20674-4.92885-4.92884-4.92885zm78.861462 0c-2.7221 0-4.92884 2.20675-4.92884 4.92885 0 .680178.0591 1.258628.30756 1.848308v25.27954a44.359438 44.359438 0 0 1 9.55012-2.15637v-24.971478c0-2.7221-2.20674-4.92885-4.92884-4.92885z"/>
      <circle cx="-50.307" cy="168.66" r="34.502"/>
      <path d="m-99.595568 55.161793c-13.652892 0-24.644532 10.99164-24.644532 24.64453v2c0-13.65289 10.99164-24.64453 24.644532-24.64453 13.65289 0 24.64453 10.99164 24.64453 24.64453v-2c0-13.65289-10.99164-24.64453-24.64453-24.64453zm-39.429682 39.566399c-2.72211 0-4.92969 2.20564-4.92969 4.92774v1.999998c0-2.722098 2.20758-4.927738 4.92969-4.927738 2.7221 0 4.92773 2.20564 4.92773 4.927738v-1.999998c0-2.7221-2.20563-4.92774-4.92773-4.92774zm78.861322 0c-2.7221 0-4.92969 2.20564-4.92969 4.92774 0 .388168.0249.742668.0879 1.085938.42892-2.284938 2.43219-4.013678 4.8418-4.013678 2.7221 0 4.92774 2.20564 4.92774 4.927738v-1.999998c0-2.7221-2.20564-4.92774-4.92774-4.92774zm-73.933592 34.193358v2c0 19.36197 15.25679 34.81055 34.501952 34.81055 1.75608 0 3.44891-.23831 5.13281-.49414a44.359438 44.359438 0 0 1 .18164-2.02539c-1.74353.26616-3.49551.51953-5.31445.51953-19.245162 0-34.501952-15.44858-34.501952-34.81055zm83.791012 5.23633a34.501892 34.501892 0 0 0 -34.50195 34.50196 34.501892 34.501892 0 0 0 .041.82812 34.501892 34.501892 0 0 1 34.46093-33.33008 34.501892 34.501892 0 0 1 34.46094 33.67383 34.501892 34.501892 0 0 0 .041-1.17187 34.501892 34.501892 0 0 0 -34.50196-34.50196zm-44.30664 35.61524a44.359438 44.359438 0 0 0 -.0527.88672 44.359438 44.359438 0 0 0 14.29297 32.50195h2.24414a44.359438 44.359438 0 0 1 -16.48438-33.38867zm-39.484372 13.67382c-5.56713 0-9.85742 4.8307-9.85742 9.85743v2c0-5.02673 4.29029-9.85743 9.85742-9.85743h19.71485v-2z"/>
    </g>
  </g>
</svg>

<svg xmlns="http://www.w3.org/2000/svg" xmlns:osb="http://www.openswatchbook.org/uri/2009/osb" xmlns:xlink="http://www.w3.org/1999/xlink" width="256" height="256" version="1.1">
 <defs>
  <linearGradient id="linearGradient5606" osb:paint="solid">
   <stop id="stop5608" offset="0" style="stop-color:#000000"/>
  </linearGradient>
  <linearGradient id="linearGradient4526" osb:paint="solid">
   <stop id="stop4528" offset="0" style="stop-color:#ffffff"/>
  </linearGradient>
  <linearGradient id="linearGradient3600-4" osb:paint="gradient">
   <stop id="stop3602-7" offset="0" style="stop-color:#f4f4f4"/>
   <stop id="stop3604-6" offset="1" style="stop-color:#dbdbdb"/>
  </linearGradient>
  <clipPath id="clipPath1094" clipPathUnits="userSpaceOnUse">
   <path style="fill:url(#linearGradient1098)" d="M 188.96875,43.999998 C 261.6174,43.999998 272,54.356613 272,126.9375 v 58.125 C 272,257.64309 261.6174,268 188.96875,268 h -73.9375 C 42.3826,268 32,257.64309 32,185.0625 v -58.125 C 32,54.356613 42.3826,43.999998 115.03125,43.999998 Z"/>
  </clipPath>
  <clipPath id="clipPath1100" clipPathUnits="userSpaceOnUse">
   <path style="fill:url(#linearGradient1104)" d="M 188.96875,44 C 261.6174,44 272,54.356615 272,126.9375 v 58.125 C 272,257.64309 261.6174,268 188.96875,268 h -73.9375 C 42.3826,268 32,257.64309 32,185.0625 v -58.125 C 32,54.356615 42.3826,44 115.03125,44 Z"/>
  </clipPath>
  <filter style="color-interpolation-filters:sRGB" id="filter11191" width="1.024" height="1.024" x="-.01" y="-.01">
   <feGaussianBlur id="feGaussianBlur11193" stdDeviation="1.12"/>
  </filter>
  <filter style="color-interpolation-filters:sRGB" id="filter11210" width="1.096" height="1.096" x="-.05" y="-.05">
   <feGaussianBlur id="feGaussianBlur11212" stdDeviation="4.48"/>
  </filter>
  <linearGradient id="linearGradient1490" x1="33.076" x2="91.624" y1="210.425" y2="262.805" gradientTransform="matrix(2.1947377,0,0,2.1923444,-10.836741,-394.1216)" gradientUnits="userSpaceOnUse" xlink:href="#linearGradient1488"/>
  <linearGradient id="linearGradient1488">
   <stop style="stop-color:#ff8b00" id="stop1484" offset="0"/>
   <stop style="stop-color:#ffda2c" id="stop1486" offset="1"/>
  </linearGradient>
  <filter id="filter4460" width="1.026" height="1.023" x="-.01" y="-.01" style="color-interpolation-filters:sRGB">
   <feGaussianBlur id="feGaussianBlur7" stdDeviation="1.133"/>
  </filter>
  <linearGradient id="linearGradient4413" x1="256" x2="256" y1="138" y2="375" gradientTransform="matrix(0.43877818,0,0,0.43877818,-24.464695,-1.3582757)" gradientUnits="userSpaceOnUse">
   <stop style="stop-color:#000000;stop-opacity:0" id="stop10" offset="0"/>
   <stop style="stop-color:#000000" id="stop12" offset=".505"/>
   <stop style="stop-color:#000000;stop-opacity:0" id="stop14" offset="1"/>
  </linearGradient>
  <filter style="color-interpolation-filters:sRGB" id="filter991" width="1.037" height="1.022" x="-.02" y="-.01">
   <feGaussianBlur id="feGaussianBlur993" stdDeviation=".69"/>
  </filter>
  <linearGradient id="linearGradient932" x1="-13.356" x2="-14.226" y1="45.202" y2="193.59" gradientTransform="translate(-80.45823,10.3106)" gradientUnits="userSpaceOnUse" xlink:href="#linearGradient4413"/>
 </defs>
 <circle style="opacity:0.1;filter:url(#filter11210)" cx="128.752" cy="127.248" r="112"/>
 <circle style="opacity:0.1;filter:url(#filter11191)" cx="128.752" cy="125.248" r="112"/>
 <circle style="opacity:0.1" cx="128.752" cy="123.248" r="114"/>
 <circle style="fill:#da1636" cx="128.752" cy="123.248" r="112"/>
 <path style="opacity:0.1;fill:#ffffff" d="M 16.751953 123.24805 C 16.971496 125.88804 17.018381 129.23376 17.154297 132.16602 A 112 112 0 0 0 18.380859 142.28516 A 112 112 0 0 0 20.833984 153.20703 A 112 112 0 0 0 24.363281 163.83203 A 112 112 0 0 0 28.9375 174.05078 A 112 112 0 0 0 34.507812 183.76172 A 112 112 0 0 0 41.019531 192.86914 A 112 112 0 0 0 48.408203 201.2793 A 112 112 0 0 0 56.599609 208.91016 A 112 112 0 0 0 65.511719 215.68555 A 112 112 0 0 0 75.056641 221.53711 A 112 112 0 0 0 85.136719 226.40625 A 112 112 0 0 0 95.654297 230.24609 A 112 112 0 0 0 106.50195 233.01562 A 112 112 0 0 0 117.57031 234.6875 A 112 112 0 0 0 128.62695 235.24219 C 129.62969 235.24097 130.6865 235.15597 131.69922 235.14258 A 112 112 0 0 0 136.67383 234.9668 A 112 112 0 0 0 147.78906 233.61914 A 112 112 0 0 0 158.71094 231.16602 A 112 112 0 0 0 169.33594 227.63672 A 112 112 0 0 0 179.55469 223.0625 A 112 112 0 0 0 189.26562 217.49219 A 112 112 0 0 0 198.37305 210.98047 A 112 112 0 0 0 206.7832 203.5918 A 112 112 0 0 0 214.41406 195.40039 A 112 112 0 0 0 221.18945 186.48828 A 112 112 0 0 0 227.04102 176.94336 A 112 112 0 0 0 231.91016 166.86328 A 112 112 0 0 0 235.75 156.3457 A 112 112 0 0 0 238.51953 145.49805 A 112 112 0 0 0 240.1582 134.66797 C 239.9606 130.58527 239.86829 126.66381 240.15234 123.24805 L 16.751953 123.24805 z"/>
 <path style="opacity:0.3;fill:#ffffff" d="M 128.752,11.248006 A 112,112 0 0 0 16.751999,123.248 112,112 0 0 0 16.793019,124.41792 112,112 0 0 1 128.752,13.248006 112,112 0 0 1 240.71098,124.07808 a 112,112 0 0 0 0.041,-0.83008 112,112 0 0 0 -112,-111.999994 z"/>
 <path style="opacity:0.2" d="m 128.752,235.248 a 112,112 0 0 1 -112.000001,-112 112,112 0 0 1 0.04102,-1.16992 A 112,112 0 0 0 128.752,233.248 112,112 0 0 0 240.71098,122.41792 a 112,112 0 0 1 0.041,0.83008 112,112 0 0 1 -112,112 z"/>
 <g style="enable-background:new" transform="translate(-186.67626,1.9437252)">
  <g transform="translate(415.05673,-21.740664)" style="enable-background:new">
   <g transform="translate(-2.4492995,9.4611196)">
    <path style="opacity:0.1;filter:url(#filter991)" d="m -100.18942,53.290706 c -13.98549,0 -25.24413,11.258648 -25.24413,25.244143 v 50.626931 c 0,13.98551 11.25864,25.2461 25.24413,25.2461 2.90636,0 5.6498,-0.585 8.24414,-1.48046 a 45.440092,45.440092 0 0 1 16.70508,-20.92578 c 0.10603,-0.94314 0.29492,-1.86753 0.29492,-2.83985 V 78.534849 c 0,-13.985495 -11.25865,-25.244143 -25.24414,-25.244143 z m -40.39062,40.529303 c -2.78842,0 -5.04883,2.26041 -5.04883,5.04882 v 29.978511 c 0,19.87637 12.70266,36.60032 30.29297,42.91601 v 12.9375 h -20.19531 c -5.70275,0 -10.09766,4.94846 -10.09766,10.09765 v 10.09766 h 8.51954 21.77343 37.13671 a 45.440092,45.440092 0 0 1 -16.94141,-35.3418 45.440092,45.440092 0 0 1 0.39454,-5.58203 c -1.78601,0.27264 -3.58011,0.5332 -5.44336,0.5332 -19.71399,0 -35.34179,-15.82454 -35.34179,-35.6582 V 98.868829 c 0,-2.78841 -2.26041,-5.04882 -5.04883,-5.04882 z m 80.7832,0 c -2.78842,0 -5.04883,2.26041 -5.04883,5.04882 0,0.69676 0.0599,1.288541 0.31445,1.892581 v 25.89648 a 45.440092,45.440092 0 0 1 9.7832,-2.20899 V 98.868829 c 0,-2.78841 -2.26041,-5.04882 -5.04882,-5.04882 z m 10.09765,40.390611 a 35.342403,35.342403 0 0 0 -35.34375,35.34374 35.342403,35.342403 0 0 0 35.34375,35.3418 35.342403,35.342403 0 0 0 35.3418,-35.3418 35.342403,35.342403 0 0 0 -35.3418,-35.34374 z"/>
    <path d="m -100.18942,53.290706 c -13.98549,0 -25.24413,11.258648 -25.24413,25.244143 v 50.626931 c 0,13.98551 11.25864,25.2461 25.24413,25.2461 2.90636,0 5.6498,-0.585 8.24414,-1.48046 a 45.440092,45.440092 0 0 1 16.70508,-20.92578 c 0.10603,-0.94314 0.29492,-1.86753 0.29492,-2.83985 V 78.534849 c 0,-13.985495 -11.25865,-25.244143 -25.24414,-25.244143 z m -40.39062,40.529303 c -2.78842,0 -5.04883,2.26041 -5.04883,5.04882 v 29.978511 c 0,19.87637 12.70266,36.60032 30.29297,42.91601 v 12.9375 h -20.19531 c -5.70275,0 -10.09766,4.94846 -10.09766,10.09765 v 10.09766 h 8.51954 21.77343 37.13671 a 45.440092,45.440092 0 0 1 -16.94141,-35.3418 45.440092,45.440092 0 0 1 0.39454,-5.58203 c -1.78601,0.27264 -3.58011,0.5332 -5.44336,0.5332 -19.71399,0 -35.34179,-15.82454 -35.34179,-35.6582 V 98.868829 c 0,-2.78841 -2.26041,-5.04882 -5.04883,-5.04882 z m 80.7832,0 c -2.78842,0 -5.04883,2.26041 -5.04883,5.04882 0,0.69676 0.0599,1.288541 0.31445,1.892581 v 25.89648 a 45.440092,45.440092 0 0 1 9.7832,-2.20899 V 98.868829 c 0,-2.78841 -2.26041,-5.04882 -5.04882,-5.04882 z m 10.09765,40.390611 a 35.342403,35.342403 0 0 0 -35.34375,35.34374 35.342403,35.342403 0 0 0 35.34375,35.3418 35.342403,35.342403 0 0 0 35.3418,-35.3418 35.342403,35.342403 0 0 0 -35.3418,-35.34374 z" style="opacity:0.4;fill:url(#linearGradient932)"/>
    <path style="fill:#ffffff" d="m -99.595568,55.161793 c -13.652892,0 -24.644212,10.99131 -24.644212,24.6442 v 49.423177 c 0,13.65289 10.99132,24.6442 24.644212,24.6442 2.83724,0 5.51527,-0.56977 8.04791,-1.44395 a 44.359438,44.359438 0 0 1 16.30746,-20.42778 c 0.10351,-0.92071 0.28883,-1.82328 0.28883,-2.77247 V 79.805993 c 0,-13.65289 -10.99131,-24.6442 -24.6442,-24.6442 z M -139.0263,94.727272 c -2.72211,0 -4.92885,2.20675 -4.92885,4.92885 v 29.264988 c 0,19.40367 12.40107,35.72967 29.57305,41.89516 v 12.63015 h -19.71536 c -5.56713,0 -9.85769,4.83096 -9.85769,9.85769 v 9.85768 h 8.31742 21.25563 36.253902 a 44.359438,44.359438 0 0 1 -16.53853,-34.50189 44.359438,44.359438 0 0 1 0.38543,-5.44864 c -1.74353,0.26616 -3.49533,0.5195 -5.31427,0.5195 -19.245162,0 -34.501892,-15.44797 -34.501892,-34.80994 V 99.656122 c 0,-2.7221 -2.20674,-4.92885 -4.92884,-4.92885 z m 78.861462,0 c -2.7221,0 -4.92884,2.20675 -4.92884,4.92885 0,0.680178 0.0591,1.258628 0.30756,1.848308 v 25.27954 a 44.359438,44.359438 0 0 1 9.55012,-2.15637 V 99.656122 c 0,-2.7221 -2.20674,-4.92885 -4.92884,-4.92885 z"/>
    <circle style="fill:#ffffff" cx="-50.307" cy="168.66" r="34.502"/>
    <path d="m -99.595568,55.161793 c -13.652892,0 -24.644532,10.99164 -24.644532,24.64453 v 2 c 0,-13.65289 10.99164,-24.64453 24.644532,-24.64453 13.65289,0 24.64453,10.99164 24.64453,24.64453 v -2 c 0,-13.65289 -10.99164,-24.64453 -24.64453,-24.64453 z m -39.429682,39.566399 c -2.72211,0 -4.92969,2.20564 -4.92969,4.92774 v 1.999998 c 0,-2.722098 2.20758,-4.927738 4.92969,-4.927738 2.7221,0 4.92773,2.20564 4.92773,4.927738 v -1.999998 c 0,-2.7221 -2.20563,-4.92774 -4.92773,-4.92774 z m 78.861322,0 c -2.7221,0 -4.92969,2.20564 -4.92969,4.92774 0,0.388168 0.0249,0.742668 0.0879,1.085938 0.42892,-2.284938 2.43219,-4.013678 4.8418,-4.013678 2.7221,0 4.92774,2.20564 4.92774,4.927738 v -1.999998 c 0,-2.7221 -2.20564,-4.92774 -4.92774,-4.92774 z m -73.933592,34.193358 v 2 c 0,19.36197 15.25679,34.81055 34.501952,34.81055 1.75608,0 3.44891,-0.23831 5.13281,-0.49414 a 44.359438,44.359438 0 0 1 0.18164,-2.02539 c -1.74353,0.26616 -3.49551,0.51953 -5.31445,0.51953 -19.245162,0 -34.501952,-15.44858 -34.501952,-34.81055 z m 83.791012,5.23633 a 34.501892,34.501892 0 0 0 -34.50195,34.50196 34.501892,34.501892 0 0 0 0.041,0.82812 34.501892,34.501892 0 0 1 34.46093,-33.33008 34.501892,34.501892 0 0 1 34.46094,33.67383 34.501892,34.501892 0 0 0 0.041,-1.17187 34.501892,34.501892 0 0 0 -34.50196,-34.50196 z m -44.30664,35.61524 a 44.359438,44.359438 0 0 0 -0.0527,0.88672 44.359438,44.359438 0 0 0 14.29297,32.50195 h 2.24414 a 44.359438,44.359438 0 0 1 -16.48438,-33.38867 z m -39.484372,13.67382 c -5.56713,0 -9.85742,4.8307 -9.85742,9.85743 v 2 c 0,-5.02673 4.29029,-9.85743 9.85742,-9.85743 h 19.71485 v -2 z" style="fill:#ffffff"/>
   </g>
  </g>
 </g>
</svg>
